!! 00000] TT[WS
!!!OTL: Xiang qinggei
!!!ARE: Asia, China, Shanxi Xixian
!! Ethnic Group: Han
!! WII, 106 (2)
!!!SCT: J0556
!!!YEM: Copyright 1995, estate of Helmut Schaffrath.
**kern
*ICvox
*Ivox
*M2/4
*k[b-]
*F:
{8f
16g
16a
8f
16e
16d
=1
8cc
16dd
16ff
4cc
=2
8cc
8dd
8ff
16cc
16a
=3
8cc
16g
16a
4g}
=4
{8cc
16g
16a
16cc
8.e
=5
16d
16f
16g
16a
4f
=6
8f
16g
16a
8a
16f
16d
=7
8c
16d
16f
4c}
==
!!!AGN: Xiaodiao. Qingge, Sichun
!!!ONB: ESAC (Essen Associative Code) Database: CHINA
!!!AMT: simple duple
!!!AIN: vox
!!!EED: Helmut Schaffrath
!!!EEV: 1.0
*-
